!!!COM: Mozart, Wolfgang Amadeus
!!!OPR: Quartet in A Major
!!!OTL:
!!!OMV: 3
!!!SCT: K 298
!!!SCA: Chronologisch-thematisches Verzeichnis sämtlicher Tonwerke Wolfgang Amade Mozarts (L. von Köchel; 1862, 2/1905, 3/1937, 1947)
!!!YOR: Breitkopf & Härtel Edition
!!!EED: Frances Bennion
!!!ENC: Frances Bennion
!!!CDT: 1756/1/27/-1791/12/5/
!!!OCY: Österreich
!!!YEC: Copyright (c) 1994, 2000 Center for Computer Assisted Research in the Humanities
!!!YEM: Rights to all derivative editions reserved.
!!!YEM: Refer to licensing agreement for further details.
!!!YEN: United States of America
**kern	**kern	**kern	**kern
*k[f#c#g#]	*k[f#c#g#]	*k[f#c#g#]	*k[f#c#g#]
*A:	*A:	*A:	*A:
*clefG	*clefG	*clefF	*clefC
*M2/4	*M2/4	*M2/4	*M2/4
*tb16	*tb16	*tb16	*tb16
=0-	=0-	=0-	=0-
4r	4r	4r	4r
8a	8c#	4r	4r
8g#	8B	.	.
=1	=1	=1	=1
8a	8c#	4E	4AA
8e	8r	.	.
8cc#	8a	4r	4r
8b	8g#	.	.
=2	=2	=2	=2
8cc#	8a	4e	4A
8a	8r	.	.
8ee	8cc#	4r	4r
8dd#	8b#	.	.
=3	=3	=3	=3
8ee	8cc#	8r	4A
8cc#	8e	8e	.
8b	8d	8e	4AA
8a	8c#	8e	.
=4	=4	=4	=4
8a	8c#	4e	4E
8g#	8B	.	.
8b	4r	4r	4r
8a#	.	.	.
=5	=5	=5	=5
8b	2B	[2e	2GG#
8e	.	.	.
8dd#	.	.	.
8ee	.	.	.
=6	=6	=6	=6
8cc#	8A	8e]	8AA
8r	4.r	4.r	4.r
8b	.	.	.
8a#	.	.	.
=7	=7	=7	=7
8b	2B	[2e	2GG#
8e	.	.	.
8dd#	.	.	.
8ee	.	.	.
=8	=8	=8	=8
8cc#	8A	8e]	8AA
8r	8r	8r	8r
8gg#	8e	4A	4C#
8aa	8e	.	.
=9	=9	=9	=9
8gg#	8e	[2a	2D
8ff#	8d	.	.
8aa	8f#	.	.
8ff#	8d	.	.
=10	=10	=10	=10
8ff#	8d	2a_	4.AA
8ee	8c#	.	.
8aa	8cc#	.	.
8ee	8cc#	.	8C#
=11	=11	=11	=11
8ee	8cc#	8a]	8E
8dd	8b	4e	8E
8cc#	8a	.	8E
8b	8g#	8e 8d	8E
=12	=12	=12	=12
4a	4a	4e 4c#	4AA
4r	4r	4r	4A
=13	=13	=13	=13
2r	4cc#	8A	2r
.	.	8e	.
.	8dd	8B	.
.	16cc#	8e	.
.	16dd	.	.
=14	=14	=14	=14
2r	8ee	8c#	2AA
.	8cc#	8e	.
.	8b	8c#	.
.	8a	8e	.
=15	=15	=15	=15
2r	8a	8d	2BB
.	8g#	8e	.
.	8f#	8d	.
.	8g#	8e	.
=16	=16	=16	=16
2r	4a	8c#	4AA
.	.	8e	.
.	8e	8c#	4r
.	8r	8e	.
=17	=17	=17	=17
4ccc#	4cc#	8A	2r
.	.	8e	.
8ddd	8dd	8B	.
16ccc#	16cc#	8e	.
16ddd	16dd	.	.
=18	=18	=18	=18
8eee	8ee	8c#	2AA
8ccc#	8cc#	8e	.
8bb	8b	8c#	.
8aa	8a	8e	.
=19	=19	=19	=19
8aa	8a	8d	2BB
8gg#	8g#	8e	.
8ff#	8f#	8d	.
8gg#	8g#	8e	.
=20	=20	=20	=20
4aa	4a	4c#	4AA
4r	4r	4r	4A
=21	=21	=21	=21
2r	8.a	8c#	2r
.	.	8r	.
.	16g#	.	.
.	8.b	8e	.
.	.	8r	.
.	16a	.	.
=22	=22	=22	=22
2r	8.cc#	8a	2r
.	.	8r	.
.	16b	.	.
.	8.dd	8b	.
.	.	8r	.
.	16cc#	.	.
=23	=23	=23	=23
2r	8.ee	8cc#	2r
.	.	8r	.
.	16dd	.	.
.	8.ff#	8dd	.
.	.	8r	.
.	16ee	.	.
=24	=24	=24	=24
2ddd#	2dd#	8r	2BB
.	.	8a 8f#	.
.	.	8a 8f#	.
.	.	8a 8f#	.
=25	=25	=25	=25
2ddd	2dd	8r	2E
.	.	8g# 8B	.
.	.	8g# 8B	.
.	.	8g# 8B	.
=26	=26	=26	=26
4ccc#	4cc#	8a	4AA
.	.	8e	.
8ddd	8dd	8f#	4D
16ccc#	16cc#	8d	.
16bb	16b	.	.
=27	=27	=27	=27
4aa	4a	8c#	4E
.	.	8e	.
4gg#	4g#	8d	4EE
.	.	8B	.
=28	=28	=28	=28
4aa	4a	4c#	4AA
8ee	4r	4r	4r
8cc#	.	.	.
=29	=29	=29	=29
8a	8r	8r	8r
8ccc#	8ee	8a	8A
8ccc#	8ee	8a	8A
8ccc#	8ee	8a	8A
=30	=30	=30	=30
8ccc#	4ee	4e	4G#
8bb	.	.	.
8gg#	4r	4r	4r
8ee	.	.	.
=31	=31	=31	=31
8b	8r	8r	8r
8aa	8dd#	8b	8F#
8aa	8dd#	8b	8F#
8aa	8dd#	8b	8F#
=32	=32	=32	=32
8aa	8dd#	[2b	4E
8gg#	8ee	.	.
8bb	4r	.	4r
8gg#	.	.	.
=33	=33	=33	=33
8ee#	4dd#	2b_	4A
8ff#	.	.	.
8bb	4ee	.	8G#
8gg#	.	.	8E
=34	=34	=34	=34
8ee#	4dd#	2b]	4A
8ff#	.	.	.
8bb	4ee	.	8G#
8gg#	.	.	8E
=35	=35	=35	=35
4ff#	[2ee	2cc#	8A
.	.	.	8A
[4gg	.	.	8A
.	.	.	8A
=36	=36	=36	=36
8gg]	4.ee]	4.c#	8A#
16ff#	.	.	8A#
16gg	.	.	.
8gg	.	.	8A#
16ff#	8cc#	8g	8A#
16ee	.	.	.
=37	=37	=37	=37
4dd#	8b	8f#	8B
.	8B	8B	8BB
4r	8c#	8c#	8C#
.	8d#	8d#	8D#
=38	=38	=38	=38
2r	8e	8e	8E
.	8f#	8f#	8F#
.	8g#	8g#	8G#
.	8a#	8a#	8A#
=39	=39	=39	=39
8r	4b	4b	4B
8b	.	.	.
8cc#	4r	4r	4r
8dd#	.	.	.
=40	=40	=40	=40
16ee	2r	2r	2r
16dd#	.	.	.
16ee	.	.	.
16ff#	.	.	.
16gg#	.	.	.
16ff#	.	.	.
16gg#	.	.	.
16aa	.	.	.
=41	=41	=41	=41
[2bb	4r	4r	2r
.	8e	8G#	.
.	8d#	8F#	.
=42	=42	=42	=42
2bb_	8e	8G#	4E
.	8B	8r	.
.	8g#	8e	4r
.	8f#	8d#	.
=43	=43	=43	=43
2bb_	8g#	8e	4E
.	8e	8r	.
.	8b	8g#	4r
.	8a#	8f##	.
=44	=44	=44	=44
2bb_	8b	8g#	4E
.	8g#	8B	.
.	8f#	8A	4EE
.	8e	8G#	.
=45	=45	=45	=45
8bb]	8e	8G#	4BB
8r	8d#	8F#	.
8dd#	8f#	4r	4r
8cc#	8e	.	.
=46	=46	=46	=46
8dd#	8f#	4B	4BB
8b	8r	.	.
8ff#	8dd#	4r	4r
8ee	8cc#	.	.
=47	=47	=47	=47
8ff#	8dd#	4a	4B
8dd#	8r	.	.
8aa	8ff#	4r	4r
8gg#	8ee#	.	.
=48	=48	=48	=48
8aa	8ff#	4.d#	8B
8ccc#	8aa	.	8B
8bb	8gg#	.	8B
8aa	8ff#	8dd#	8B
=49	=49	=49	=49
8aa	8ff#	8dd#	8e
8gg#	8ee	8ee	8r
4r	4r	4r	8E
.	.	.	8D#
=50	=50	=50	=50
2gg#	2b	2e	8E
.	.	.	8BB
.	.	.	8G#
.	.	.	8F#
=51	=51	=51	=51
2bb	[2ee	2g#	8G#
.	.	.	8E
.	.	.	8B
.	.	.	8A#
=52	=52	=52	=52
4ddd	4ee]	8g#	8B
.	.	8b	8G#
4dd	4b	8g#	8E
.	.	8e	8G#
=53	=53	=53	=53
4cc#	8a	8e	8A
.	8a	8e	8A
[4ccc#	8a	8e	8A
.	8a	8e	8A
=54	=54	=54	=54
8ccc#]	8a	8e	8A
8eee	8cc#	8e	8A
8ddd#	8b	8e	8A
8ccc#	8a	8e	8A
=55	=55	=55	=55
8bb	8g#	8e	8E
16aa	8g#	8e	8E
16bb	.	.	.
8ccc#	8a	8e	8AA
16bb	8f#	8c#	8AA
16aa	.	.	.
=56	=56	=56	=56
4gg#	8e	8B	8BB
.	8e	8B	8BB
4ff#	8d#	8A	8BB
.	8d#	8A	8BB
=57	=57	=57	=57
4ee	8e	[2G#	8EE
.	8r	.	8E
4r	8e	.	8E
.	8d#	.	8E
=58	=58	=58	=58
8r	8e	8G#]	8E
8bb	8B	8g#	8E
8gg#	4r	8b	8E
8ee	.	8g#	8E
=59	=59	=59	=59
8gg#	4r	4a	8E
8ff#	.	.	8E
4r	8d#	[4A	8E
.	8c#	.	8E
=60	=60	=60	=60
8r	8d#	8A]	8E
8ccc#	8B	8a	8E
8aa	4r	8f#	8E
8ff#	.	8d#	8E
=61	=61	=61	=61
8aa	4dd	4b	8E
8gg#	.	.	8E
8bb	4cc#	4a	8E
8aa	.	.	8E
=62	=62	=62	=62
8ccc#	4g#	4d	8E
8bb	.	.	8E
8ddd	4a	4c#	8E
8ccc#	.	.	8E
=63	=63	=63	=63
4eee	2b	2G#	2EE
8ddd	.	.	.
8r	.	.	.
=64	=64	=64	=64
4r	4r	2r	2r
8a	8c#	.	.
8g#	8B	.	.
=65	=65	=65	=65
8a	8c#	4E	4AA
8e	8r	.	.
8cc#	8a	4r	4r
8b	8g#	.	.
=66	=66	=66	=66
8cc#	8a	4e	4A
8a	8r	.	.
8ee	8cc#	4r	4r
8dd#	8b#	.	.
=67	=67	=67	=67
8ee	8cc#	8r	4A
8cc#	8e	8e	.
8b	8d	8e	4AA
8a	8c#	8e	.
=68	=68	=68	=68
8a	8c#	4e	4E
8g#	8B	.	.
8b	4r	4r	4r
8a#	.	.	.
=69	=69	=69	=69
8b	2B	[2e	2GG#
8e	.	.	.
8dd#	.	.	.
8ee	.	.	.
=70	=70	=70	=70
8cc#	8A	8e]	8AA
8r	4.r	4.r	4.r
8b	.	.	.
8a#	.	.	.
=71	=71	=71	=71
8b	2B	[2e	2GG#
8e	.	.	.
8dd#	.	.	.
8ee	.	.	.
=72	=72	=72	=72
8cc#	8A	8e]	8AA
8r	8r	8r	8r
8gg#	8e	4A	4C#
8aa	8e	.	.
=73	=73	=73	=73
8gg#	8e	[2a	2D
8ff#	8d	.	.
8aa	8f#	.	.
[8ff#	8d	.	.
=74	=74	=74	=74
8ff#]	8d	2a_	4.AA
8ee	8c#	.	.
8aa	8cc#	.	.
[8ee	8cc#	.	8C#
=75	=75	=75	=75
8ee]	8cc#	8a]	8E
8dd	8b	4e	8E
8cc#	8a	.	8E
8b	8g#	8e 8d	8E
=76	=76	=76	=76
4a	4a	4e 4c#	4AA
4r	4r	8A	4r
.	.	8G#	.
=77	=77	=77	=77
2r	2r	8A	4r
.	.	8E	.
.	.	8c#	8AA
.	.	8B	8GG#
=78	=78	=78	=78
2r	2r	8c#	8AA
.	.	8A	8EE
.	.	8e	8C#
.	.	8d#	8BB#
=79	=79	=79	=79
2r	[2gg 2a	8e	8C#
.	.	8c#	8AA
.	.	8g	8E
.	.	8f#	8D#
=80	=80	=80	=80
4.ccc#	2gg 2a]	8g	8E
.	.	8e	8C#
.	.	8c#	8AA
16bb	.	8e	8A
16ccc#	.	.	.
=81	=81	=81	=81
4ddd	4ff# 4a	8d	4D
.	.	8A	.
4r	4r	8d	4r
.	.	8A	.
=82	=82	=82	=82
2r	4ff#	8d	2r
.	.	8A	.
.	8gg	8e	.
.	16ff#	8A	.
.	16gg	.	.
=83	=83	=83	=83
2r	8aa	8f#	2D
.	8ff#	8A	.
.	8ee	8f#	.
.	8dd	8A	.
=84	=84	=84	=84
2r	8dd	8g	2E
.	8cc#	8A	.
.	8b	8g	.
.	8cc#	8A	.
=85	=85	=85	=85
2r	8cc#	8f#	4D
.	8dd	8A	.
.	8a	8f#	4r
.	8r	8A	.
=86	=86	=86	=86
4ff#	4f#	8D	2r
.	.	8A	.
8gg	8g	8E	.
16ff#	16f#	8A	.
16gg	16g	.	.
=87	=87	=87	=87
8aa	8a	8F#	2DD
8ff#	8f#	8A	.
8ee	8e	8F#	.
8dd	8d	8A	.
=88	=88	=88	=88
8dd	8d	8G	2EE
8cc#	8c#	8A	.
8b	8B	8G	.
8cc#	8c#	8A	.
=89	=89	=89	=89
8cc#	8c#	8F#	4DD
8dd	8d	8A	.
8a	8A	8F#	4r
8r	8r	8A	.
=90	=90	=90	=90
8.dd	8.d	8F#	2r
.	.	8r	.
16cc#	16c#	.	.
8.ee	8.e	8A	.
.	.	8r	.
16dd	16d	.	.
=91	=91	=91	=91
8.ff#	8.f#	8d	2r
.	.	8r	.
16ee	16e	.	.
8.gg	8.g	8e	.
.	.	8r	.
16ff#	16f#	.	.
=92	=92	=92	=92
8.aa	8.a	8f#	2r
.	.	8r	.
16gg	16g	.	.
8.bb	8.b	8g	.
.	.	8r	.
16aa	16a	.	.
=93	=93	=93	=93
2gg#	2g#	8r	2EE
.	.	8d 8B	.
.	.	8d 8B	.
.	.	8d 8B	.
=94	=94	=94	=94
2gg	2g	8r	2AA
.	.	8e 8c#	.
.	.	8e 8c#	.
.	.	8e 8c#	.
=95	=95	=95	=95
4ff#	4f#	8d	4D
.	.	8A	.
8gg	8g	8B	4GG
16ff#	16f#	8G	.
16ee	16e	.	.
=96	=96	=96	=96
4dd	4d	8F#	4AA
.	.	8A	.
4cc#	4c#	8G	4AA
.	.	8E	.
=97	=97	=97	=97
4dd	4d	4F#	4DD
8a	4r	4r	4r
8f#	.	.	.
=98	=98	=98	=98
8d	8r	8r	8r
8ff#	8a	8d	8D
8ff#	8a	8d	8D
8ff#	8a	8d	8D
=99	=99	=99	=99
8ff#	4a	4A	4C#
8ee	.	.	.
8cc#	4r	4r	4r
8a	.	.	.
=100	=100	=100	=100
8e	8r	8r	8r
8ddd	8ee	8g#	8BB
8ddd	8ee	8g#	8B
8ddd	8ee	8g#	8B
=101	=101	=101	=101
8ddd	4ee	4a	4A
8ccc#	.	.	.
8eee	8cc#	4r	4r
8ccc#	8a	.	.
=102	=102	=102	=102
8aa#	4g#	[2e	4d
8bb	.	.	.
8eee	4a	.	8c#
8ccc#	.	.	8A
=103	=103	=103	=103
8aa#	4g#	2e]	4d
8bb	.	.	.
8eee	[4a	.	8c#
8ccc#	.	.	8A
=104	=104	=104	=104
4bb	8a]	8f	8d
.	8a	8f	8D
[4ccc	8a	8f	8D
.	8a	8f	8D
=105	=105	=105	=105
8ccc]	8a	8f#	8D#
16bb	8a	4F#	8D#
16ccc	.	.	.
8ccc	8a	.	8D#
16bb	8f#	8c	8D#
16aa	.	.	.
=106	=106	=106	=106
4gg#	8e	8B	8E
.	8e	8E	8EE
4r	8f#	8F#	8FF#
.	8g#	8G#	8GG#
=107	=107	=107	=107
2r	8a	8A	8AA
.	8b	8B	8BB
.	8cc#	8c#	8C#
.	8dd#	8d#	8D#
=108	=108	=108	=108
8r	4ee	4e	4E
8ee	.	.	.
8ff#	4r	4r	4r
8gg#	.	.	.
=109	=109	=109	=109
16aa	2r	2r	2r
16gg#	.	.	.
16aa	.	.	.
16bb	.	.	.
16ccc#	.	.	.
16bb	.	.	.
16ccc#	.	.	.
16ddd	.	.	.
=110	=110	=110	=110
[2eee	4r	4r	2r
.	8a	8c#	.
.	8g#	8B	.
=111	=111	=111	=111
2eee_	8a	8c#	4A
.	8e	8r	.
.	8cc#	8a	4r
.	8b	8g#	.
=112	=112	=112	=112
2eee_	8cc#	8a	4A
.	8a	8r	.
.	8ee	8cc#	4r
.	8dd#	8b#	.
=113	=113	=113	=113
2eee_	8ee	8cc#	4A
.	8cc#	8e	.
.	8b	8d	4AA
.	8a	8c#	.
=114	=114	=114	=114
8eee]	8a	8c#	4E
8r	8g#	8B	.
8gg#	8b	4r	4r
8ff#	8a	.	.
=115	=115	=115	=115
8gg#	8b	4e	4E
8ee	8r	.	.
8bb	8dd	4r	4r
8aa	8cc#	.	.
=116	=116	=116	=116
8bb	8dd	4g#	4E
8gg#	8r	.	.
8ddd	8b	4r	4r
8ccc#	8a#	.	.
=117	=117	=117	=117
8ddd	8b	[2g#	8e
8fff#	8dd	.	8e
8eee	8cc#	.	8e
8ddd	8b	.	8e
=118	=118	=118	=118
8ddd	8b	8g#]	8A
8ccc#	8a	8a	8r
4r	4r	4r	8AA
.	.	.	8GG#
=119	=119	=119	=119
2ccc#	2ee	2a	8AA
.	.	.	8EE
.	.	.	8C#
.	.	.	8BB
=120	=120	=120	=120
2eee	[2aa	[2cc#	8C#
.	.	.	8AA
.	.	.	8E
.	.	.	8D#
=121	=121	=121	=121
4ggg	4aa]	8cc#]	8E
.	.	8ee	8C#
4gg	4ee	8cc#	8AA
.	.	8a	8C#
=122	=122	=122	=122
4ff#	8dd	8a	8D
.	8dd	8a	8D
[4fff#	8dd	8a	8D
.	8dd	8a	8D
=123	=123	=123	=123
4fff#]	8b	8g#	8D
.	8b	8g#	8D
8ddd	8b	8g#	8D
16ccc#	8b	8g#	8D
16bb	.	.	.
=124	=124	=124	=124
16ddd#	8cc#	8a	8C#
16eee	.	.	.
16ddd#	8cc#	8a	8C#
16eee	.	.	.
8ccc#	8a	8c#	8F#
16bb	8a	8c#	8F#
16aa	.	.	.
=125	=125	=125	=125
2bb	8a	8f#	8D
.	8a	8f#	8D
.	8g#	8e	8E
.	8g#	8d	8E
=126	=126	=126	=126
4aa	4a	8c#	8AA
.	.	8r	8AA
4r	4r	8A	8AA
.	.	8G#	8AA
=127	=127	=127	=127
8r	8r	8A	8AA
8ee	8c#	8E	8AA
8cc#	8e	4r	8AA
8a	8c#	.	8AA
=128	=128	=128	=128
8cc#	8e	4r	8AA
8b	8d	.	8AA
4r	4r	8G#	8AA
.	.	8F#	8AA
=129	=129	=129	=129
8r	8r	8G#	8AA
8ff#	8dd	8E	8AA
8dd	8b	4r	8AA
8b	8g#	.	8AA
=130	=130	=130	=130
8dd	4g	4e	8AA
8cc#	.	.	8AA
8ee	4f#	4d	8AA
8dd	.	.	8AA
=131	=131	=131	=131
8ff#	4c#	4G	8AA
8ee	.	.	8AA
8gg	4d	4F#	8AA
8ff#	.	.	8AA
=132	=132	=132	=132
4aa	2e	2C#	2AA
8gg	.	.	.
8r	.	.	.
=133	=133	=133	=133
2r	4r	2r	2r
.	8b	.	.
.	8a#	.	.
=134	=134	=134	=134
[2ff#	8b	4.f#	4D
.	8f#	.	.
.	8dd	.	4C#
.	8cc#	8e	.
=135	=135	=135	=135
8ff#]	8dd	4d	4BB
8bb	8b	.	.
8ddd	8ff#	4B	4AA
8fff#	8dd	.	.
=136	=136	=136	=136
4.eee	[2d 2B	[2E	[2GG#
8ddd#	.	.	.
=137	=137	=137	=137
4ddd	4d 4B]	4E]	4GG#]
4r	4r	4r	4r
=138	=138	=138	=138
4r	4r	2r	2r
8a	8c#	.	.
8g#	8B	.	.
=139	=139	=139	=139
8a	8c#	4E	4AA
8e	8r	.	.
8cc#	8a	4r	4r
8b	8g#	.	.
=140	=140	=140	=140
8cc#	8a	4e	4A
8a	8r	.	.
8ee	8cc#	4r	4r
8dd#	8b#	.	.
=141	=141	=141	=141
8ee	8cc#	8r	4A
8cc#	8e	8e	.
8b	8d	8e	4AA
8a	8c#	8e	.
=142	=142	=142	=142
8a	8c#	4e	4E
8g#	8B	.	.
8b	4r	4r	4r
8a#	.	.	.
=143	=143	=143	=143
8b	2B	[2e	2GG#
8e	.	.	.
8dd#	.	.	.
8ee	.	.	.
=144	=144	=144	=144
8cc#	8A	8e]	8AA
8r	4.r	4.r	4.r
8b	.	.	.
8a#	.	.	.
=145	=145	=145	=145
8b	2B	[2e	2GG#
8e	.	.	.
8dd#	.	.	.
8ee	.	.	.
=146	=146	=146	=146
8cc#	8A	8e]	8AA
8r	8r	8r	8r
8gg#	8e	4A	4C#
8aa	8e	.	.
=147	=147	=147	=147
8gg#	8e	[2a	2D
8ff#	8d	.	.
8aa	8f#	.	.
8ff#	8d	.	.
=148	=148	=148	=148
8ff#	8d	2a_	4.AA
8ee	8c#	.	.
8aa	8cc#	.	.
8ee	8cc#	.	8C#
=149	=149	=149	=149
8ee	8cc#	8a]	8E
8dd	8b	4e	8E
8cc#	8a	.	8E
8b	8g#	8e 8d	8E
=150	=150	=150	=150
4a	4a	4e 4c#	4AA
4r	4r	4r	4A
=151	=151	=151	=151
2r	4cc#	8A	2r
.	.	8e	.
.	8dd	8B	.
.	16cc#	8e	.
.	16dd	.	.
=152	=152	=152	=152
2r	8ee	8c#	2AA
.	8cc#	8e	.
.	8b	8c#	.
.	8a	8e	.
=153	=153	=153	=153
2r	8a	8d	2BB
.	8g#	8e	.
.	8f#	8d	.
.	8g#	8e	.
=154	=154	=154	=154
2r	4a	8c#	4AA
.	.	8e	.
.	8e	8c#	4r
.	8r	8e	.
=155	=155	=155	=155
4ccc#	4cc#	8A	2r
.	.	8e	.
8ddd	8dd	8B	.
16ccc#	16cc#	8e	.
16ddd	16dd	.	.
=156	=156	=156	=156
8eee	8ee	8c#	2AA
8ccc#	8cc#	8e	.
8bb	8b	8c#	.
8aa	8a	8e	.
=157	=157	=157	=157
8aa	8a	8d	2BB
8gg#	8g#	8e	.
8ff#	8f#	8d	.
8gg#	8g#	8e	.
=158	=158	=158	=158
4aa	4a	4c#	4AA
4r	4r	4r	4A
=159	=159	=159	=159
2r	8.a	8c#	2r
.	.	8r	.
.	16g#	.	.
.	8.b	8e	.
.	.	8r	.
.	16a	.	.
=160	=160	=160	=160
2r	8.cc#	8a	2r
.	.	8r	.
.	16b	.	.
.	8.dd	8b	.
.	.	8r	.
.	16cc#	.	.
=161	=161	=161	=161
2r	8.ee	8cc#	2r
.	.	8r	.
.	16dd	.	.
.	8.ff#	8dd	.
.	.	8r	.
.	16ee	.	.
=162	=162	=162	=162
2ddd#	2dd#	8r	2BB
.	.	8a 8f#	.
.	.	8a 8f#	.
.	.	8a 8f#	.
=163	=163	=163	=163
2ddd	2dd	8r	2E
.	.	8g# 8B	.
.	.	8g# 8B	.
.	.	8g# 8B	.
=164	=164	=164	=164
4ccc#	4cc#	8a	4AA
.	.	8e	.
8ddd	8dd	8f#	4D
16ccc#	16cc#	8d	.
16bb	16b	.	.
=165	=165	=165	=165
4aa	4a	8c#	4E
.	.	8e	.
4gg#	4g#	8d	4EE
.	.	8B	.
=166	=166	=166	=166
4aa	8a	8c#	8AA
.	8r	8e 8c#	8A
4r	8a	8e 8c#	8A
.	8aa	8e 8c#	8A
=167	=167	=167	=167
2r	8gg#	8f# 8d	8A
.	8ff#	8f# 8d	8A
.	8aa	8f# 8d	8A
.	8ff#	8f# 8d	8A
=168	=168	=168	=168
2r	8dd#	8e 8c#	8A
.	8ee	8e 8c#	8A
.	8a	8e 8c#	8A
.	8aa	8e 8c#	8A
=169	=169	=169	=169
2r	8gg#	8f# 8d	8A
.	8ff#	8f# 8d	8A
.	8aa	8f# 8d	8A
.	8ff#	8f# 8d	8A
=170	=170	=170	=170
4r	8dd#	4e 4c#	4A
.	8ee	.	.
8eee	8ee	4r	4r
8eee	8ee	.	.
=171	=171	=171	=171
8ddd#	8dd#	2b 2e	2GG#
8eee	8ee	.	.
8ddd#	8dd#	.	.
8eee	8ee	.	.
=172	=172	=172	=172
8ccc#	8cc#	8a	8AA
8r	8ee	8cc#	8AA
8ddd	8aa	8f#	8DD
8fff#	8ff#	8dd	8DD
=173	=173	=173	=173
8eee	8ee	8cc#	8EE
8ccc#	8cc#	8a	8EE
8ddd	8dd	8b	8EE
8bb	8b	8g#	8EE
=174	=174	=174	=174
4aa	8a	8a	8AA
.	8r	8e 8c#	8A
4r	8a	8e 8c#	8A
.	8aa	8e 8c#	8A
=175	=175	=175	=175
2r	8gg#	8f# 8d	8A
.	8ff#	8f# 8d	8A
.	8aa	8f# 8d	8A
.	8ff#	8f# 8d	8A
=176	=176	=176	=176
2r	8dd#	8e 8c#	8A
.	8ee	8e 8c#	8A
.	8a	8e 8c#	8A
.	8aa	8e 8c#	8A
=177	=177	=177	=177
2r	8gg#	8f# 8d	8A
.	8ff#	8f# 8d	8A
.	8aa	8f# 8d	8A
.	8ff#	8f# 8d	8A
=178	=178	=178	=178
4r	8dd#	4e 4c#	4A
.	8ee	.	.
8eee	8ee	4r	4r
8eee	8ee	.	.
=179	=179	=179	=179
8ddd#	8dd#	2b 2e	2GG#
8eee	8ee	.	.
8ddd#	8dd#	.	.
8eee	8ee	.	.
=180	=180	=180	=180
8ccc#	8cc#	8a	8AA
8r	8ee	8cc#	8AA
8ddd	8aa	8f#	8DD
8fff#	8ff#	8dd	8DD
=181	=181	=181	=181
8eee	8ee	8cc#	8EE
8ccc#	8cc#	8a	8E
8bb	8b	8g#	8E
8eee	8ee	8g#	8E
=182	=182	=182	=182
8ddd	8dd	8b	4A
8ccc#	8cc#	8a	.
8eee	8ee	4r	4r
8eee	8ee	.	.
=183	=183	=183	=183
8ddd#	8dd#	2b 2e	2GG#
8eee	8ee	.	.
8ddd#	8dd#	.	.
8eee	8ee	.	.
=184	=184	=184	=184
8ccc#	8cc#	8a	8AA
8r	8ee	8cc#	8AA
8ddd	8aa	8f#	8DD
8fff#	8ff#	8dd	8DD
=185	=185	=185	=185
8eee	8ee	8cc#	8EE
8ccc#	8cc#	8a	8EE
8ddd	8dd	8b	8EE
8bb	8b	8g#	8EE
=186	=186	=186	=186
8aa	8a	8a	4AA
8ccc#	8e	8c#	.
8ddd	8f#	8d	8r
8bb	8g#	8B	8E
=187	=187	=187	=187
8aa	8a	8c#	4A
8ccc#	8e	8c#	.
8ddd	8f#	8d	8r
8bb	8g#	8B	8E
=188	=188	=188	=188
4aa	4a	4c#	4AA
4ccc#	4aa 4cc# 4e	4a 4e 4c#	4A
=189	=189	=189	=189
4aa	4A	4e 4c#	4AA
4r	4r	4r	4r
==	==	==	==
*-	*-	*-	*-
!!!RWG1: This file contains only pitch and duration data.
!!!RWG2: Transposing instruments are not transposed.
!!!RWG3: Spines may have incompatible meters.
!!!RWG4: Durations of rests and tied notes may be interpreted.
!!!RWG: Key is interpreted using the Humdrum key tool.
!!!AFT: stage1
!!!END: 1997/04/15
!!format changes:
!!content changes:
!!public access: complete
!!!KEY: 2150802400
!!!EMD: Converted from MuseData to Humdrum Dec 16, 2000, by Andreas Kornstaedt using muse2kern.
